X: 27845
T: Mother's Delight
R: reel
M: 4/4
K: Edorian
|:G3B A3B|G3B AFDF|Eeed efgf|e3d Bcdf|
efed B2Bc|dedA FDDF|Beed B3c|d2AF GEED:|
|:GBeB GEED|FAAG FDED|GBeB GEED|FEDF E3F|
GBeB GEED|FAAG FDED|G2GF GFEG|BGFG E3F:|

